X: 78
T:Wind Shakes The Barley. BF13.077
M:4/4
L:1/8
Q:200
C:In hand "B"
S:BF12,MS,c1850,Lakes,Browne Coll..
R:Reel
O:England
A:Lakes
Z:vmp.Chris Partington
K:D major
A2 AB AFDA | BABc BcdB | A2 AB AFDA | gfed B2 d2 :|!
|: f2 fd g2 ge | f2 fd cecA | f2 fd g2 ge | afed B2 d2 :|]
